dist/img/coop/person.svg

<svg width="80" height="80" viewBox="0 0 80 80" fill="none" xmlns="http://www.w3.org/2000/svg">
<rect width="80" height="80" rx="5" fill="#D1327F"/>
<path d="M53.7503 39.9995C61.3443 39.9995 67.5003 46.1555 67.5003 53.7495C67.5003 61.3433 61.3443 67.4995 53.7503 67.4995C46.1565 67.4995 40.0003 61.3433 40.0003 53.7495C40.0003 46.1555 46.1565 39.9995 53.7503 39.9995ZM40.056 44.9978C38.4383 47.5238 37.5003 50.527 37.5003 53.7495C37.5003 57.8253 39.0008 61.5505 41.4798 64.4033C39.4908 64.8035 37.3285 65.002 35.0003 65.002C26.4479 65.002 20.1405 62.3218 16.2851 56.9108C15.4552 55.746 15.0092 54.3515 15.0092 52.9213V50.6215C15.0092 47.5163 17.5263 44.9993 20.6314 44.9993L40.056 44.9978ZM47.1343 52.8655C46.646 52.3775 45.8545 52.3775 45.3665 52.8655C44.8783 53.3538 44.8783 54.1453 45.3665 54.6333L50.3665 59.6333C50.8545 60.1215 51.646 60.1215 52.1343 59.6333L62.1343 49.6333C62.6223 49.1453 62.6223 48.3538 62.1343 47.8655C61.646 47.3775 60.8545 47.3775 60.3665 47.8655L51.2503 56.9818L47.1343 52.8655ZM35.0003 15.011C41.9038 15.011 47.5003 20.6074 47.5003 27.511C47.5003 34.4146 41.9038 40.011 35.0003 40.011C28.0968 40.011 22.5003 34.4146 22.5003 27.511C22.5003 20.6074 28.0968 15.011 35.0003 15.011Z" fill="#F1EDF3"/>
</svg>

<svg width="80" height="80" fill="none" xmlns="http://www.w3.org/2000/svg"><rect width="80" height="80" rx="5" fill="#D1327F"/><path d="M53.75 40c7.594 0 13.75 6.156 13.75 13.75 0 7.593-6.156 13.75-13.75 13.75C46.157 67.5 40 61.343 40 53.75 40 46.155 46.157 40 53.75 40Zm-13.694 4.998A16.173 16.173 0 0 0 37.5 53.75c0 4.075 1.5 7.8 3.98 10.653-1.99.4-4.151.599-6.48.599-8.552 0-14.86-2.68-18.715-8.091a6.875 6.875 0 0 1-1.276-3.99v-2.3A5.622 5.622 0 0 1 20.631 45l19.425-.001Zm7.078 7.867a1.25 1.25 0 0 0-1.767 1.768l5 5a1.25 1.25 0 0 0 1.767 0l10-10a1.25 1.25 0 0 0-1.767-1.768l-9.117 9.117-4.116-4.117ZM35 15.011c6.904 0 12.5 5.596 12.5 12.5s-5.596 12.5-12.5 12.5c-6.903 0-12.5-5.596-12.5-12.5s5.597-12.5 12.5-12.5Z" fill="#F1EDF3"/></svg>
